svg/600/sharp/shuffle_on-fill.svg

<svg xmlns="http://www.w3.org/2000/svg" width="48" height="48" viewBox="0 -960 960 960"><path d="M25.869-25.869v-909.827h909.827v909.827H25.869Zm547.87-120h240.957v-238.827H741.13v114.783L571.913-436.565l-51.609 52.044 167.217 166.217H573.739v72.435Zm-377.391 0L741.13-689.087v114.348h73.566v-239.957H573.739v73.566h115.782L145.869-198.478l50.479 52.609Zm193-374.305 52.609-52.044-244.609-242.478-51.479 52.609 243.479 241.913Z"/></svg>

<svg xmlns="http://www.w3.org/2000/svg" width="48" height="48" viewBox="0 -960 960 960"><path d="M25.87-25.87V-935.7H935.7v909.83H25.87Zm547.87-120H814.7V-384.7h-73.57v114.79L571.91-436.57l-51.61 52.05L687.52-218.3H573.74v72.43Zm-377.39 0 544.78-543.22v114.35h73.57V-814.7H573.74v73.57h115.78L145.87-198.48l50.48 52.61Zm193-374.3 52.61-52.05L197.35-814.7l-51.48 52.61 243.48 241.92Z"/></svg>
